src/assets/img/logo/omm-symbol.svg

<svg clip-rule="evenodd" fill-rule="evenodd" stroke-linejoin="round" stroke-miterlimit="2" viewBox="0 0 403 389" xmlns="http://www.w3.org/2000/svg" xmlns:xlink="http://www.w3.org/1999/xlink"><radialGradient id="a" cx="0" cy="0" gradientTransform="matrix(201.5 0 0 194.5 685.5 499.5)" gradientUnits="userSpaceOnUse" r="1"><stop offset="0" stop-color="#9d4df1"/><stop offset=".09" stop-color="#518dda"/><stop offset=".21" stop-color="#15c1c8"/><stop offset=".63" stop-color="#00d3c2"/><stop offset="1" stop-color="#9d4df1"/></radialGradient><path d="m699.5 661c9.107 0 16.5 7.393 16.5 16.5s-7.393 16.5-16.5 16.5-16.5-7.393-16.5-16.5 7.393-16.5 16.5-16.5zm-70.5-6c8.279 0 15 6.721 15 15s-6.721 15-15 15-15-6.721-15-15 6.721-15 15-15zm138.5-15c9.659 0 17.5 7.841 17.5 17.5s-7.841 17.5-17.5 17.5-17.5-7.841-17.5-17.5 7.841-17.5 17.5-17.5zm-97.5-29c12.142 0 22 9.858 22 22s-9.858 22-22 22-22-9.858-22-22 9.858-22 22-22zm-104 11c7.727 0 14 6.273 14 14s-6.273 14-14 14-14-6.273-14-14 6.273-14 14-14zm159-17c12.142 0 22 9.858 22 22s-9.858 22-22 22-22-9.858-22-22 9.858-22 22-22zm-107-10c12.142 0 22 9.858 22 22s-9.858 22-22 22-22-9.858-22-22 9.858-22 22-22zm204 0c11.038 0 20 8.962 20 20s-8.962 20-20 20-20-8.962-20-20 8.962-20 20-20zm-50-13.5c12.142 0 22 9.858 22 22s-9.858 22-22 22-22-9.858-22-22 9.858-22 22-22zm-198-20.5c12.142 0 22 9.858 22 22s-9.858 22-22 22-22-9.858-22-22 9.858-22 22-22zm-55.5 6c6.899 0 12.5 5.601 12.5 12.5s-5.601 12.5-12.5 12.5-12.5-5.601-12.5-12.5 5.601-12.5 12.5-12.5zm286.5-26.5c12.142 0 22 9.858 22 22s-9.858 22-22 22-22-9.858-22-22 9.858-22 22-22zm52-4.5c11.038 0 20 8.962 20 20s-8.962 20-20 20-20-8.962-20-20 8.962-20 20-20zm-312-24c12.142 0 22 9.858 22 22s-9.858 22-22 22-22-9.858-22-22 9.858-22 22-22zm51.82 17.82c4.967 0 9 4.033 9 9s-4.033 9-9 9-9-4.033-9-9 4.033-9 9-9zm224.68-35.32c11.314 0 20.5 9.186 20.5 20.5s-9.186 20.5-20.5 20.5-20.5-9.186-20.5-20.5 9.186-20.5 20.5-20.5zm-326.5 4.5c6.071 0 11 4.929 11 11s-4.929 11-11 11-11-4.929-11-11 4.929-11 11-11zm88-9c6.071 0 11 4.929 11 11s-4.929 11-11 11-11-4.929-11-11 4.929-11 11-11zm284-19c11.038 0 20 8.962 20 20s-8.962 20-20 20-20-8.962-20-20 8.962-20 20-20zm-330-16c11.866 0 21.5 9.634 21.5 21.5s-9.634 21.5-21.5 21.5-21.5-9.634-21.5-21.5 9.634-21.5 21.5-21.5zm281.5-10c11.314 0 20.5 9.186 20.5 20.5s-9.186 20.5-20.5 20.5-20.5-9.186-20.5-20.5 9.186-20.5 20.5-20.5zm-234.5 2c6.899 0 12.5 5.601 12.5 12.5s-5.601 12.5-12.5 12.5-12.5-5.601-12.5-12.5 5.601-12.5 12.5-12.5zm268-41c11.59 0 21 9.41 21 21s-9.41 21-21 21-21-9.41-21-21 9.41-21 21-21zm-352.5 19c5.243 0 9.5 4.257 9.5 9.5s-4.257 9.5-9.5 9.5-9.5-4.257-9.5-9.5 4.257-9.5 9.5-9.5zm299.5-23c10.762 0 19.5 8.738 19.5 19.5s-8.738 19.5-19.5 19.5-19.5-8.738-19.5-19.5 8.738-19.5 19.5-19.5zm-248-5c11.866 0 21.5 9.634 21.5 21.5s-9.634 21.5-21.5 21.5-21.5-9.634-21.5-21.5 9.634-21.5 21.5-21.5zm49.5 9.5c8.003 0 14.5 6.497 14.5 14.5s-6.497 14.5-14.5 14.5-14.5-6.497-14.5-14.5 6.497-14.5 14.5-14.5zm162.5-37c10.486 0 19 8.514 19 19s-8.514 19-19 19-19-8.514-19-19 8.514-19 19-19zm-131 5.5c8.555 0 15.5 6.945 15.5 15.5s-6.945 15.5-15.5 15.5-15.5-6.945-15.5-15.5 6.945-15.5 15.5-15.5zm182.5-23c11.866 0 21.5 9.634 21.5 21.5s-9.634 21.5-21.5 21.5-21.5-9.634-21.5-21.5 9.634-21.5 21.5-21.5zm-228-3c11.866 0 21.5 9.634 21.5 21.5s-9.634 21.5-21.5 21.5-21.5-9.634-21.5-21.5 9.634-21.5 21.5-21.5zm87.5 7c9.383 0 17 7.617 17 17s-7.617 17-17 17-17-7.617-17-17 7.617-17 17-17zm46.5-2c9.934 0 18 8.066 18 18s-8.066 18-18 18-18-8.066-18-18 8.066-18 18-18zm-189 5c4.139 0 7.5 3.361 7.5 7.5s-3.361 7.5-7.5 7.5-7.5-3.361-7.5-7.5 3.361-7.5 7.5-7.5zm229-43c11.866 0 21.5 9.634 21.5 21.5s-9.634 21.5-21.5 21.5-21.5-9.634-21.5-21.5 9.634-21.5 21.5-21.5zm-123 0c11.866 0 21.5 9.634 21.5 21.5s-9.634 21.5-21.5 21.5-21.5-9.634-21.5-21.5 9.634-21.5 21.5-21.5zm62-11c11.866 0 21.5 9.634 21.5 21.5s-9.634 21.5-21.5 21.5-21.5-9.634-21.5-21.5 9.634-21.5 21.5-21.5z" fill="url(#a)" transform="translate(-484 -305)"/></svg>

<?xml version="1.0" encoding="UTF-8" standalone="no"?>
<!DOCTYPE svg PUBLIC "-//W3C//DTD SVG 1.1//EN" "http://www.w3.org/Graphics/SVG/1.1/DTD/svg11.dtd">
<svg width="100%" height="100%" viewBox="0 0 403 389" version="1.1" xmlns="http://www.w3.org/2000/svg" xmlns:xlink="http://www.w3.org/1999/xlink" xml:space="preserve" xmlns:serif="http://www.serif.com/" style="fill-rule:evenodd;clip-rule:evenodd;stroke-linejoin:round;stroke-miterlimit:2;">
    <g transform="matrix(1,0,0,1,-484,-305.5)">
        <g transform="matrix(1,0,0,1,0,0.5)">
            <path d="M699.5,661C708.607,661 716,668.393 716,677.5C716,686.607 708.607,694 699.5,694C690.393,694 683,686.607 683,677.5C683,668.393 690.393,661 699.5,661ZM629,655C637.279,655 644,661.721 644,670C644,678.279 637.279,685 629,685C620.721,685 614,678.279 614,670C614,661.721 620.721,655 629,655ZM767.5,640C777.159,640 785,647.841 785,657.5C785,667.159 777.159,675 767.5,675C757.841,675 750,667.159 750,657.5C750,647.841 757.841,640 767.5,640ZM670,611C682.142,611 692,620.858 692,633C692,645.142 682.142,655 670,655C657.858,655 648,645.142 648,633C648,620.858 657.858,611 670,611ZM566,622C573.727,622 580,628.273 580,636C580,643.727 573.727,650 566,650C558.273,650 552,643.727 552,636C552,628.273 558.273,622 566,622ZM725,605C737.142,605 747,614.858 747,627C747,639.142 737.142,649 725,649C712.858,649 703,639.142 703,627C703,614.858 712.858,605 725,605ZM618,595C630.142,595 640,604.858 640,617C640,629.142 630.142,639 618,639C605.858,639 596,629.142 596,617C596,604.858 605.858,595 618,595ZM822,595C833.038,595 842,603.962 842,615C842,626.038 833.038,635 822,635C810.962,635 802,626.038 802,615C802,603.962 810.962,595 822,595ZM772,581.5C784.142,581.5 794,591.358 794,603.5C794,615.642 784.142,625.5 772,625.5C759.858,625.5 750,615.642 750,603.5C750,591.358 759.858,581.5 772,581.5ZM574,561C586.142,561 596,570.858 596,583C596,595.142 586.142,605 574,605C561.858,605 552,595.142 552,583C552,570.858 561.858,561 574,561ZM518.5,567C525.399,567 531,572.601 531,579.5C531,586.399 525.399,592 518.5,592C511.601,592 506,586.399 506,579.5C506,572.601 511.601,567 518.5,567ZM805,540.5C817.142,540.5 827,550.358 827,562.5C827,574.642 817.142,584.5 805,584.5C792.858,584.5 783,574.642 783,562.5C783,550.358 792.858,540.5 805,540.5ZM857,536C868.038,536 877,544.962 877,556C877,567.038 868.038,576 857,576C845.962,576 837,567.038 837,556C837,544.962 845.962,536 857,536ZM545,512C557.142,512 567,521.858 567,534C567,546.142 557.142,556 545,556C532.858,556 523,546.142 523,534C523,521.858 532.858,512 545,512ZM596.82,529.82C601.787,529.82 605.82,533.853 605.82,538.82C605.82,543.787 601.787,547.82 596.82,547.82C591.853,547.82 587.82,543.787 587.82,538.82C587.82,533.853 591.853,529.82 596.82,529.82ZM821.5,494.5C832.814,494.5 842,503.686 842,515C842,526.314 832.814,535.5 821.5,535.5C810.186,535.5 801,526.314 801,515C801,503.686 810.186,494.5 821.5,494.5ZM495,499C501.071,499 506,503.929 506,510C506,516.071 501.071,521 495,521C488.929,521 484,516.071 484,510C484,503.929 488.929,499 495,499ZM583,490C589.071,490 594,494.929 594,501C594,507.071 589.071,512 583,512C576.929,512 572,507.071 572,501C572,494.929 576.929,490 583,490ZM867,471C878.038,471 887,479.962 887,491C887,502.038 878.038,511 867,511C855.962,511 847,502.038 847,491C847,479.962 855.962,471 867,471ZM537,455C548.866,455 558.5,464.634 558.5,476.5C558.5,488.366 548.866,498 537,498C525.134,498 515.5,488.366 515.5,476.5C515.5,464.634 525.134,455 537,455ZM818.5,445C829.814,445 839,454.186 839,465.5C839,476.814 829.814,486 818.5,486C807.186,486 798,476.814 798,465.5C798,454.186 807.186,445 818.5,445ZM584,447C590.899,447 596.5,452.601 596.5,459.5C596.5,466.399 590.899,472 584,472C577.101,472 571.5,466.399 571.5,459.5C571.5,452.601 577.101,447 584,447ZM852,406C863.59,406 873,415.41 873,427C873,438.59 863.59,448 852,448C840.41,448 831,438.59 831,427C831,415.41 840.41,406 852,406ZM499.5,425C504.743,425 509,429.257 509,434.5C509,439.743 504.743,444 499.5,444C494.257,444 490,439.743 490,434.5C490,429.257 494.257,425 499.5,425ZM799,402C809.762,402 818.5,410.738 818.5,421.5C818.5,432.262 809.762,441 799,441C788.238,441 779.5,432.262 779.5,421.5C779.5,410.738 788.238,402 799,402ZM551,397C562.866,397 572.5,406.634 572.5,418.5C572.5,430.366 562.866,440 551,440C539.134,440 529.5,430.366 529.5,418.5C529.5,406.634 539.134,397 551,397ZM600.5,406.5C608.503,406.5 615,412.997 615,421C615,429.003 608.503,435.5 600.5,435.5C592.497,435.5 586,429.003 586,421C586,412.997 592.497,406.5 600.5,406.5ZM763,369.5C773.486,369.5 782,378.014 782,388.5C782,398.986 773.486,407.5 763,407.5C752.514,407.5 744,398.986 744,388.5C744,378.014 752.514,369.5 763,369.5ZM632,375C640.555,375 647.5,381.945 647.5,390.5C647.5,399.055 640.555,406 632,406C623.445,406 616.5,399.055 616.5,390.5C616.5,381.945 623.445,375 632,375ZM814.5,352C826.366,352 836,361.634 836,373.5C836,385.366 826.366,395 814.5,395C802.634,395 793,385.366 793,373.5C793,361.634 802.634,352 814.5,352ZM586.5,349C598.366,349 608,358.634 608,370.5C608,382.366 598.366,392 586.5,392C574.634,392 565,382.366 565,370.5C565,358.634 574.634,349 586.5,349ZM674,356C683.383,356 691,363.617 691,373C691,382.383 683.383,390 674,390C664.617,390 657,382.383 657,373C657,363.617 664.617,356 674,356ZM720.5,354C730.434,354 738.5,362.066 738.5,372C738.5,381.934 730.434,390 720.5,390C710.566,390 702.5,381.934 702.5,372C702.5,362.066 710.566,354 720.5,354ZM531.5,359C535.639,359 539,362.361 539,366.5C539,370.639 535.639,374 531.5,374C527.361,374 524,370.639 524,366.5C524,362.361 527.361,359 531.5,359ZM760.5,316C772.366,316 782,325.634 782,337.5C782,349.366 772.366,359 760.5,359C748.634,359 739,349.366 739,337.5C739,325.634 748.634,316 760.5,316ZM637.5,316C649.366,316 659,325.634 659,337.5C659,349.366 649.366,359 637.5,359C625.634,359 616,349.366 616,337.5C616,325.634 625.634,316 637.5,316ZM699.5,305C711.366,305 721,314.634 721,326.5C721,338.366 711.366,348 699.5,348C687.634,348 678,338.366 678,326.5C678,314.634 687.634,305 699.5,305Z" style="fill:url(#_Radial1);"/>
        </g>
    </g>
    <defs>
        <radialGradient id="_Radial1" cx="0" cy="0" r="1" gradientUnits="userSpaceOnUse" gradientTransform="matrix(201.5,0,0,194.5,685.5,499.5)"><stop offset="0" style="stop-color:rgb(157,77,241);stop-opacity:1"/><stop offset="0.09" style="stop-color:rgb(81,141,218);stop-opacity:1"/><stop offset="0.21" style="stop-color:rgb(21,193,200);stop-opacity:1"/><stop offset="0.63" style="stop-color:rgb(0,211,194);stop-opacity:1"/><stop offset="1" style="stop-color:rgb(157,77,241);stop-opacity:1"/></radialGradient>
    </defs>
</svg>
